symbolic/64x64/apps/deluge.svg

<svg xmlns="http://www.w3.org/2000/svg" width="64" height="64"><path style="opacity:.2" d="m30.235 5.45-15.91 22.911c-5.472 7.879-5.411 16.391-1.724 22.82C16.289 57.609 23.545 62 32.006 62c8.46 0 15.712-4.391 19.396-10.819 3.684-6.429 3.742-14.941-1.724-22.825L33.764 5.406c-1.374-1.866-1.999-1.898-3.529.045z"/><path style="fill:#225394" d="m30.235 4.45-15.91 22.911c-5.472 7.879-5.411 16.391-1.724 22.82C16.289 56.609 23.545 61 32.006 61c8.46 0 15.712-4.391 19.396-10.819 3.684-6.429 3.742-14.941-1.724-22.825L33.764 4.406c-1.374-1.866-1.999-1.898-3.529.045z"/><path style="opacity:.2" d="M32.013 10.212 19.286 29.674c2.952-2.661 6.863-3.907 10.575-3.371 1.709.247 3.376.868 4.885 1.901 3.318 2.274 1.777 7.065-2.244 7.16l-.033.005a6.214 6.214 0 0 0-5.993 6.207 6.214 6.214 0 0 0 5.497 6.168c.936.184 1.993.116 3.312-.097 2.732-.459 6.706-1.658 8.844-3.477 5.375-4.267 4.392-8.608 1.163-13.619z"/><path style="fill:#358eff" d="M32.013 9.212 19.286 28.674c2.952-2.661 6.863-3.907 10.575-3.371 1.709.247 3.376.868 4.885 1.901 3.318 2.274 1.777 7.065-2.244 7.16l-.033.005a6.214 6.214 0 0 0-5.993 6.207 6.214 6.214 0 0 0 5.497 6.168c.936.184 1.993.116 3.312-.097 2.732-.459 6.706-1.658 8.844-3.477 5.375-4.267 4.392-8.608 1.163-13.619z"/><path style="opacity:.2" d="M28.079 30.008c-3.128-.137-6.351 1.548-8.267 4.895-2.786 4.869-2.435 10.701 1.579 14.878 5.835 6.07 14.424 4.945 18.609.695-2.801.829-5.311 1.171-7.544.956a10.313 10 0 0 1-.019 0 10.313 10 0 0 1-10.313-10 10.313 10 0 0 1 8.713-9.872c.432-.119.87-.206 1.316-.222a7.963 7.963 0 0 0-4.074-1.33z"/><path style="fill:#c3dcfc" d="M28.079 29.008c-3.128-.137-6.351 1.548-8.267 4.895-2.786 4.869-2.435 10.701 1.579 14.878 5.835 6.07 14.424 4.945 18.609.695-2.801.829-5.311 1.171-7.544.956a10.313 10 0 0 1-.019 0 10.313 10 0 0 1-10.313-10 10.313 10 0 0 1 8.713-9.872c.432-.119.87-.206 1.316-.222a7.963 7.963 0 0 0-4.074-1.33z"/><path style="opacity:.1;fill:#fff" d="M32.059 3c-.52.002-1.06.478-1.825 1.45l-15.91 22.909c-3.026 4.358-4.331 8.903-4.295 13.188.163-3.987 1.504-8.169 4.295-12.188l15.91-22.91c.765-.971 1.305-1.447 1.825-1.449.519-.002 1.02.473 1.707 1.406L49.68 28.355c2.788 4.022 4.128 8.204 4.291 12.192.036-4.285-1.268-8.832-4.291-13.192L33.766 4.406c-.687-.933-1.188-1.408-1.707-1.406z"/><path style="opacity:.2;fill:#fff" d="M32.012 9.21 19.285 28.677a13.82 13.82 0 0 1 1.346-1.059l11.381-17.406 13.281 20.34c1.473 2.285 2.459 4.429 2.605 6.492.165-2.369-.893-4.836-2.605-7.492zm4.383 22.27c-.436 1.547-1.832 2.835-3.895 2.883-.01.001-.021.007-.031.008a6.21 6.21 0 0 0-5.992 6.203c0 .123.026.239.035.36a6.21 6.21 0 0 1 5.957-5.563c.01-.001.021-.007.031-.008 2.063-.048 3.459-1.336 3.895-2.883.036.136.064.272.085.409a3.73 3.73 0 0 0-.085-1.409z"/><path style="opacity:.2;fill:#fff" d="M28.078 29.008c-3.128-.136-6.35 1.547-8.266 4.894-1.28 2.239-1.882 4.68-1.785 7.071.086-2.067.683-4.144 1.785-6.071 1.916-3.347 5.138-5.03 8.266-4.894a7.916 7.916 0 0 1 2.606.58 10.313 10 0 0 1 .152-.029 5.738 5.738 0 0 1 1.316-.219 7.96 7.96 0 0 0-4.074-1.332zm-5.898 12.39a10.313 10 0 0 0-.055 1.036 10.313 10 0 0 0 .025.49 10.313 10 0 0 1 .03-.526 10.313 10 0 0 0 10.258 9.032 10.313 10 0 0 0 .019 0c1.724.166 3.617-.006 5.678-.471.681-.44 1.318-.927 1.865-1.482-2.801.828-5.31 1.168-7.543.953a10.313 10 0 0 1-.019 0 10.313 10 0 0 1-10.258-9.032z"/></svg>

<svg xmlns="http://www.w3.org/2000/svg" width="64" height="64" version="1.1">
 <path style="opacity:0.2" d="M 30.235,5.4508 14.325,28.361 C 8.8533,36.24 8.914,44.752 12.601,51.181 16.289,57.609 23.545,62 32.006,62 40.466,62 47.718,57.609 51.402,51.181 55.086,44.752 55.144,36.24 49.678,28.356 L 33.764,5.4061 C 32.39,3.5396 31.765,3.5082 30.235,5.4508 Z"/>
 <path style="fill:#225394" d="M 30.235,4.4508 14.325,27.361 C 8.8533,35.24 8.914,43.752 12.601,50.181 16.289,56.609 23.545,61 32.006,61 40.466,61 47.718,56.609 51.402,50.181 55.086,43.752 55.144,35.24 49.678,27.356 L 33.764,4.4061 C 32.39,2.5396 31.765,2.5082 30.235,4.4508 Z"/>
 <path style="opacity:0.2" d="M 32.013,10.212 19.286,29.674 C 22.238,27.013 26.149,25.767 29.861,26.303 31.57,26.55 33.237,27.171 34.746,28.204 38.064,30.478 36.523,35.269 32.502,35.364 32.491,35.365 32.48,35.368 32.469,35.369 29.127,35.488 26.478,38.231 26.476,41.576 26.478,44.728 28.841,47.38 31.973,47.744 32.909,47.928 33.966,47.86 35.285,47.647 38.017,47.188 41.991,45.989 44.129,44.17 49.504,39.903 48.521,35.562 45.292,30.551 Z"/>
 <path style="fill:#358eff" d="M 32.013,9.2116 19.286,28.674 C 22.238,26.013 26.149,24.767 29.861,25.303 31.57,25.55 33.237,26.171 34.746,27.204 38.064,29.478 36.523,34.269 32.502,34.364 32.491,34.365 32.48,34.368 32.469,34.369 29.127,34.488 26.478,37.231 26.476,40.576 26.478,43.728 28.841,46.38 31.973,46.744 32.909,46.928 33.966,46.86 35.285,46.647 38.017,46.188 41.991,44.989 44.129,43.17 49.504,38.903 48.521,34.562 45.292,29.551 Z"/>
 <path style="opacity:0.2" d="M 28.079,30.008 C 24.951,29.871 21.728,31.556 19.812,34.903 17.026,39.772 17.377,45.604 21.391,49.781 27.226,55.851 35.815,54.726 40,50.476 37.199,51.305 34.689,51.647 32.456,51.432 A 10.313,9.9998 0 0 1 32.437,51.432 10.313,9.9998 0 0 1 22.124,41.432 10.313,9.9998 0 0 1 30.837,31.56 C 31.269,31.441 31.707,31.354 32.153,31.338 30.903,30.508 29.5,30.07 28.079,30.008 Z"/>
 <path style="fill:#c3dcfc" d="M 28.079,29.008 C 24.951,28.871 21.728,30.556 19.812,33.903 17.026,38.772 17.377,44.604 21.391,48.781 27.226,54.851 35.815,53.726 40,49.476 37.199,50.305 34.689,50.647 32.456,50.432 A 10.313,9.9998 0 0 1 32.437,50.432 10.313,9.9998 0 0 1 22.124,40.432 10.313,9.9998 0 0 1 30.837,30.56 C 31.269,30.441 31.707,30.354 32.153,30.338 30.903,29.508 29.5,29.07 28.079,29.008 Z"/>
 <path style="opacity:0.1;fill:#ffffff" d="M 32.059,3 C 31.539,3.0017 30.999,3.4779 30.234,4.4492 L 14.324,27.359 C 11.298,31.717 9.9926,36.262 10.029,40.547 10.192,36.56 11.533,32.378 14.324,28.359 L 30.234,5.4492 C 30.999,4.4779 31.539,4.0017 32.059,4 32.578,3.9983 33.079,4.473 33.766,5.4062 L 49.68,28.355 C 52.468,32.377 53.808,36.559 53.971,40.547 54.007,36.262 52.703,31.715 49.68,27.355 L 33.766,4.4062 C 33.079,3.473 32.578,2.9983 32.059,3 Z"/>
 <path style="opacity:0.2;fill:#ffffff" d="M 32.012,9.2109 19.285,28.676 C 19.713,28.29 20.166,27.942 20.631,27.617 L 32.012,10.211 45.293,30.551 C 46.766,32.836 47.752,34.98 47.898,37.043 48.063,34.674 47.005,32.207 45.293,29.551 Z M 36.395,31.48 C 35.959,33.027 34.563,34.315 32.5,34.363 32.49,34.364 32.479,34.37 32.469,34.371 29.126,34.49 26.479,37.23 26.477,40.574 26.477,40.697 26.503,40.813 26.512,40.934 26.827,37.887 29.343,35.482 32.469,35.371 32.479,35.37 32.49,35.364 32.5,35.363 34.563,35.315 35.959,34.027 36.395,32.48 36.431,32.616 36.459,32.752 36.48,32.889 36.533,32.422 36.522,31.947 36.395,31.48 Z"/>
 <path style="opacity:0.2;fill:#ffffff" d="M 28.078,29.008 C 24.95,28.872 21.728,30.555 19.812,33.902 18.532,36.141 17.93,38.582 18.027,40.973 18.113,38.906 18.71,36.829 19.812,34.902 21.728,31.555 24.95,29.872 28.078,30.008 28.967,30.046 29.843,30.251 30.684,30.588 A 10.313,9.9998 0 0 1 30.836,30.559 C 31.268,30.44 31.707,30.356 32.152,30.34 30.903,29.51 29.5,29.07 28.078,29.008 Z M 22.18,41.398 A 10.313,9.9998 0 0 0 22.125,42.434 10.313,9.9998 0 0 0 22.15,42.924 10.313,9.9998 0 0 1 22.18,42.398 10.313,9.9998 0 0 0 32.438,51.43 10.313,9.9998 0 0 0 32.457,51.43 C 34.181,51.596 36.074,51.424 38.135,50.959 38.816,50.519 39.453,50.032 40,49.477 37.199,50.305 34.69,50.645 32.457,50.43 A 10.313,9.9998 0 0 1 32.438,50.43 10.313,9.9998 0 0 1 22.18,41.398 Z"/>
</svg>
